X: 6754
T: Changelings, The
R: waltz
M: 3/4
K: Bminor
|:"Bm" B2 BA Bd|"G" ABBA FE|"D" Fd dc ec|"A" d2 de c2|
"Bm" ~f3e df|"A" e2 a2 c2|1 "G" ~B3d "A"ce|"Bm" df ed c/B/A:|2 "G" ~B3d "A" cA|"Bm" B4 a2||
|:"A" a3f df|~e3d c/d/e|"Bm7" fb ba fa|b3a f2|
"G" de ef B2|"D/F#" A3B FE|"Em" FB B/c/d "D/F#" ce|"G" d2 ed c/B/A:|

